icons/Solar2-icons.svg

<svg width="16" height="16" viewBox="0 0 16 16" fill="currentColor" xmlns="http://www.w3.org/2000/svg">
<g clip-path="url(#clip0_4_1039)">
<path d="M7.97064 1.72578C8.02904 1.72578 8.08504 1.70266 8.12634 1.66152C8.16763 1.62038 8.19083 1.56458 8.19083 1.5064V0.219378C8.19083 0.161196 8.16763 0.105396 8.12634 0.0642543C8.08504 0.0231129 8.02904 0 7.97064 0C7.91225 0 7.85624 0.0231129 7.81495 0.0642543C7.77366 0.105396 7.75046 0.161196 7.75046 0.219378V1.5064C7.75046 1.6275 7.8491 1.72578 7.97064 1.72578ZM15.7798 7.78062H14.4881C14.4297 7.78062 14.3737 7.80373 14.3324 7.84488C14.2911 7.88602 14.2679 7.94182 14.2679 8C14.2679 8.05818 14.2911 8.11398 14.3324 8.15512C14.3737 8.19627 14.4297 8.21938 14.4881 8.21938H15.7798C15.8382 8.21938 15.8942 8.19627 15.9355 8.15512C15.9768 8.11398 16 8.05818 16 8C16 7.94182 15.9768 7.88602 15.9355 7.84488C15.8942 7.80373 15.8382 7.78062 15.7798 7.78062ZM12.6092 3.65631C12.6415 3.65634 12.6733 3.64927 12.7026 3.63562C12.7318 3.62197 12.7576 3.60207 12.7783 3.57733L13.659 2.52431C13.6783 2.5023 13.6931 2.47665 13.7023 2.44889C13.7115 2.42112 13.7151 2.39179 13.7128 2.36263C13.7105 2.33347 13.7023 2.30506 13.6889 2.27908C13.6754 2.2531 13.6568 2.23006 13.6342 2.21134C13.6117 2.19261 13.5856 2.17857 13.5575 2.17003C13.5294 2.1615 13.4999 2.15865 13.4707 2.16164C13.4415 2.16464 13.4132 2.17343 13.3875 2.18749C13.3617 2.20155 13.3391 2.22059 13.3208 2.24351L12.4401 3.29653C12.4133 3.32856 12.3962 3.36752 12.3909 3.40887C12.3855 3.45021 12.3921 3.49221 12.4099 3.52997C12.4276 3.56772 12.4558 3.59965 12.4911 3.62202C12.5264 3.6444 12.5673 3.65629 12.6092 3.65631V3.65631ZM1.45321 7.78062H0.220183C0.161787 7.78062 0.105783 7.80373 0.0644906 7.84488C0.0231982 7.88602 0 7.94182 0 8C0 8.05818 0.0231982 8.11398 0.0644906 8.15512C0.105783 8.19627 0.161787 8.21938 0.220183 8.21938H1.45321C1.51161 8.21938 1.56761 8.19627 1.6089 8.15512C1.6502 8.11398 1.67339 8.05818 1.67339 8C1.67339 7.94182 1.6502 7.88602 1.6089 7.84488C1.56761 7.80373 1.51161 7.78062 1.45321 7.78062ZM3.22642 3.58318C3.2456 3.60485 3.2689 3.62251 3.29497 3.63514C3.32105 3.64777 3.34939 3.65512 3.37834 3.65675C3.40729 3.65838 3.43627 3.65427 3.46361 3.64465C3.49096 3.63504 3.51611 3.62011 3.53761 3.60073C3.58109 3.56199 3.60737 3.50765 3.61067 3.44963C3.61397 3.39161 3.59403 3.33465 3.55523 3.29126L2.61578 2.23824C2.59658 2.21673 2.57332 2.1992 2.54732 2.18665C2.52132 2.1741 2.49309 2.16677 2.46425 2.16508C2.4354 2.1634 2.40651 2.16739 2.37922 2.17683C2.35192 2.18628 2.32676 2.20098 2.30517 2.22011C2.28358 2.23924 2.26599 2.26242 2.25339 2.28832C2.24079 2.31423 2.23343 2.34235 2.23174 2.37109C2.23005 2.39983 2.23406 2.42861 2.24354 2.45581C2.25301 2.483 2.26777 2.50807 2.28697 2.52958L3.22642 3.5826V3.58318ZM7.97064 14.2742C7.91225 14.2742 7.85624 14.2973 7.81495 14.3385C7.77366 14.3796 7.75046 14.4354 7.75046 14.4936V15.7806C7.75046 15.8388 7.77366 15.8946 7.81495 15.9357C7.85624 15.9769 7.91225 16 7.97064 16C8.02904 16 8.08504 15.9769 8.12634 15.9357C8.16763 15.8946 8.19083 15.8388 8.19083 15.7806V14.4936C8.19083 14.4354 8.16763 14.3796 8.12634 14.3385C8.08504 14.2973 8.02904 14.2742 7.97064 14.2742ZM12.7742 12.4765C12.7355 12.4328 12.6811 12.4062 12.6228 12.4025C12.5645 12.3989 12.5071 12.4184 12.4633 12.4569C12.4194 12.4954 12.3927 12.5496 12.389 12.6077C12.3854 12.6658 12.405 12.723 12.4436 12.7667L13.3243 13.7612C13.3435 13.7828 13.3667 13.8005 13.3926 13.8131C13.4186 13.8258 13.4468 13.8333 13.4757 13.8351C13.5046 13.8369 13.5335 13.8331 13.5609 13.8238C13.5883 13.8144 13.6135 13.7998 13.6352 13.7808C13.6569 13.7617 13.6747 13.7386 13.6874 13.7127C13.7001 13.6868 13.7076 13.6587 13.7095 13.6299C13.7113 13.6012 13.7074 13.5723 13.698 13.5451C13.6887 13.5178 13.674 13.4926 13.6549 13.471L12.7742 12.4765V12.4765ZM3.23053 12.4712L2.29108 13.4657C2.27064 13.4866 2.25458 13.5113 2.24383 13.5384C2.23309 13.5655 2.22787 13.5945 2.22848 13.6236C2.2291 13.6528 2.23554 13.6815 2.24742 13.7081C2.2593 13.7348 2.27639 13.7588 2.29769 13.7787C2.31899 13.7987 2.34408 13.8143 2.37147 13.8245C2.39887 13.8347 2.42804 13.8394 2.45727 13.8382C2.4865 13.8371 2.51521 13.8301 2.54172 13.8178C2.56823 13.8055 2.59201 13.788 2.61167 13.7664L3.55112 12.7719C3.57156 12.7511 3.58762 12.7264 3.59837 12.6993C3.60912 12.6721 3.61433 12.6432 3.61372 12.614C3.6131 12.5849 3.60667 12.5562 3.59478 12.5295C3.5829 12.5029 3.56581 12.4789 3.54451 12.4589C3.52321 12.4389 3.49813 12.4234 3.47073 12.4132C3.44333 12.403 3.41416 12.3983 3.38493 12.3994C3.3557 12.4006 3.32699 12.4075 3.30048 12.4199C3.27397 12.4322 3.25019 12.4496 3.23053 12.4712V12.4712ZM10.6404 5.206C10.6191 5.22547 10.6018 5.24893 10.5896 5.27505C10.5774 5.30118 10.5705 5.32944 10.5692 5.35824C10.568 5.38703 10.5724 5.41579 10.5823 5.44287C10.5922 5.46995 10.6074 5.49481 10.6269 5.51605C11.2679 6.20888 11.6243 7.11626 11.6257 8.0585C11.6257 10.0668 10.0122 11.7002 8.02936 11.7002C6.01248 11.7002 4.43303 10.1002 4.43303 8.0585C4.43303 6.01682 6.01248 4.41682 8.02936 4.41682C8.48793 4.41682 8.89071 4.4917 9.16374 4.62742C9.21561 4.65109 9.27467 4.65377 9.32849 4.63491C9.3823 4.61605 9.42667 4.57712 9.45224 4.52631C9.47782 4.4755 9.4826 4.41679 9.46558 4.36253C9.44857 4.30828 9.41108 4.26273 9.36103 4.23547C8.93416 4.02252 8.40103 3.97806 8.02936 3.97806C5.76587 3.97806 3.99266 5.77053 3.99266 8.0585C3.99266 10.3465 5.76587 12.1389 8.02936 12.1389C10.2553 12.1389 12.0661 10.3079 12.0661 8.0585C12.0651 7.00621 11.6674 5.99268 10.9516 5.21887C10.912 5.17617 10.857 5.15085 10.7987 5.14844C10.7404 5.14602 10.6835 5.16672 10.6404 5.206V5.206Z" fill="#3D3D3D"/>
</g>
<defs>
<clipPath id="clip0_4_1039">
<rect width="16" height="16" fill="white"/>
</clipPath>
</defs>
</svg>

<svg xmlns="http://www.w3.org/2000/svg" width="16" height="16" fill="currentColor" class="si si-Solar2-icons" viewBox="0 0 16 16">
  <g clip-path="url(#a)">
    <path d="M7.97 1.726a.22.22 0 0 0 .22-.22V.22A.22.22 0 0 0 7.97 0a.22.22 0 0 0-.22.22v1.286c0 .121.1.22.22.22m7.81 6.055h-1.292a.22.22 0 0 0-.22.219.22.22 0 0 0 .22.22h1.292A.22.22 0 0 0 16 8a.22.22 0 0 0-.22-.22m-3.17-4.125a.22.22 0 0 0 .168-.079l.881-1.053a.22.22 0 0 0-.272-.337.2.2 0 0 0-.066.057l-.88 1.053a.218.218 0 0 0 .05.325.2.2 0 0 0 .118.034M1.452 7.781H.22A.22.22 0 0 0 0 8a.22.22 0 0 0 .22.22h1.233a.22.22 0 0 0 .22-.22.22.22 0 0 0-.22-.22m1.773-4.198a.22.22 0 0 0 .312.018.22.22 0 0 0 .017-.31l-.94-1.053a.22.22 0 0 0-.328.292zm4.745 10.691a.22.22 0 0 0-.22.22v1.287a.22.22 0 0 0 .22.219.22.22 0 0 0 .22-.22v-1.286a.22.22 0 0 0-.22-.22m4.803-1.797a.22.22 0 0 0-.385.13.22.22 0 0 0 .055.16l.88.994a.22.22 0 0 0 .374-.216.2.2 0 0 0-.043-.074zm-9.543-.006-.94.995a.22.22 0 0 0 .007.313.22.22 0 0 0 .314-.013l.94-.994a.219.219 0 0 0-.167-.373.22.22 0 0 0-.154.072m7.41-7.265a.22.22 0 0 0-.014.31c.64.693.997 1.6.999 2.543 0 2.008-1.614 3.641-3.597 3.641-2.017 0-3.596-1.6-3.596-3.641s1.58-3.642 3.596-3.642c.459 0 .862.075 1.135.21a.22.22 0 0 0 .288-.1.22.22 0 0 0-.091-.292c-.427-.212-.96-.257-1.332-.257-2.263 0-4.036 1.793-4.036 4.08 0 2.289 1.773 4.08 4.036 4.08 2.226 0 4.037-1.83 4.037-4.08a4.2 4.2 0 0 0-1.114-2.84.22.22 0 0 0-.312-.012"/>
  </g>
  <defs>
    <clipPath id="a">
      <path d="M0 0h16v16H0z"/>
    </clipPath>
  </defs>
</svg>
